packages/internal_wiki/src/data/svgs/DE297.svg

<?xml version="1.0" encoding="UTF-8" standalone="no"?>
<!-- Created with Inkscape (http://www.inkscape.org/) -->
<svg
   xmlns:svg="http://www.w3.org/2000/svg"
   xmlns="http://www.w3.org/2000/svg"
   version="1.0"
   width="2200"
   height="1800"
   id="svg2">
  <defs
     id="defs4" />
  <path
     d="M 436.2582,339.69343 L 436.34966,352.65263 L 945.69863,352.65263 L 954.92503,338.738 L 436.2582,339.69343 z "
     style="fill:white;fill-opacity:1;fill-rule:evenodd;stroke:black;stroke-width:2;stroke-linecap:butt;stroke-linejoin:miter;stroke-miterlimit:4;stroke-dasharray:none;stroke-opacity:1"
     id="path14402" />
  <path
     d="M 2187.7015,371.21763 L 2187.61,381.48284 L 1799.8827,381.84445 C 1787.6342,381.84445 1786.0162,386.93186 1784.8029,391.45984 L 1603.168,1784.1106 L 1774.6259,391.02121 L 1782.992,372.74863 L 2187.7015,371.21763 z "
     style="fill:white;fill-opacity:1;fill-rule:evenodd;stroke:black;stroke-width:2;stroke-linecap:butt;stroke-linejoin:miter;stroke-miterlimit:4;stroke-dasharray:none;stroke-opacity:1"
     id="path15289" />
  <g
     id="layer1">
    <path
       d="M 455.65629,315.93698 L 607.18143,152.86518 L 1112.6733,156.41249 L 1154.0586,139.26715 L 1236.7834,16.069072 L 1789.4352,16.069072 L 1779.5678,142.81446 C 1783.5137,153.02211 1791.3985,159.46997 1806.7638,158.77736 L 2188.7029,157.03797 L 2188.7218,335.08705 L 1778.3853,334.96048 C 1758.096,336.22985 1739.7199,341.85845 1732.2703,365.11263 L 1507.6543,1797.3482 L 88.398656,1797.6506 L 993.00144,366.6406 C 1014.771,326.56558 977.56775,333.26601 968.41595,315.45027 L 455.65629,315.93698 z "
       style="fill:#999;fill-opacity:1;fill-rule:evenodd;stroke:none;stroke-width:1px;stroke-linecap:butt;stroke-linejoin:miter;stroke-opacity:1"
       id="path12616" />
    <path
       d="M 11.243302,1783.5648 L 87.319311,1783.5648 L 998.66656,342.68779 C 1002.9452,333.08002 984.16681,315.2496 963.2411,315.10634 L 458.2913,315.31308 L 438.53966,337.24799 L 954.52122,339.18294 L 11.243302,1783.5648 z "
       style="fill:white;fill-opacity:1;fill-rule:evenodd;stroke:black;stroke-width:3;stroke-linecap:butt;stroke-linejoin:miter;stroke-miterlimit:4;stroke-dasharray:none;stroke-opacity:1"
       id="path1882" />
    <path
       d="M 88.553385,1783.0329 L 89.474888,1793.1694 L 989.78143,371.65208 C 995.62988,359.5787 1002.5003,349.71312 999.6381,339.83091 L 88.553385,1783.0329 z "
       style="fill:none;fill-opacity:0.75;fill-rule:evenodd;stroke:black;stroke-width:3;stroke-linecap:butt;stroke-linejoin:miter;stroke-miterlimit:4;stroke-dasharray:none;stroke-opacity:1"
       id="path5492" />
    <path
       d="M 621.43331,131.88114 L 607.54792,145.24277 L 607.54792,153.13555 L 1097.3408,156.54874 C 1132.8077,156.99802 1147.2742,146.39126 1156.2183,133.50971 L 1236.4283,15.754633 L 1236.4283,7.2216563 L 1215.8238,7.2216563 L 1143.0265,113.236 C 1134.2787,127.14953 1111.8402,135.03508 1097.7578,134.62243 L 621.43331,131.88114 z "
       style="fill:white;fill-opacity:1;fill-rule:evenodd;stroke:black;stroke-width:2;stroke-linecap:butt;stroke-linejoin:miter;stroke-miterlimit:4;stroke-dasharray:none;stroke-opacity:1"
       id="path7265" />
    <path
       d="M 607.35829,145.63884 L 1098.7663,147.0192 C 1124.3612,147.5148 1140.0107,142.36897 1150.5298,130.45489 L 1236.1122,6.9126873"
       style="fill:none;fill-opacity:0.75;fill-rule:evenodd;stroke:black;stroke-width:1px;stroke-linecap:butt;stroke-linejoin:miter;stroke-opacity:1"
       id="path9037" />
    <path
       d="M 1332.2018,399.28494 L 1090.5024,949.29398 L 1121.9043,949.29398 L 1356.9427,399.28494 L 1332.2018,399.28494 z "
       style="fill:white;fill-opacity:1;fill-rule:evenodd;stroke:black;stroke-width:1px;stroke-linecap:butt;stroke-linejoin:miter;stroke-opacity:1"
       id="path9039" />
    <path
       d="M 1538.5965,398.69428 L 1365.7173,948.7033 L 1397.1192,948.7033 L 1563.3374,398.69428 L 1538.5965,398.69428 z "
       style="fill:white;fill-opacity:1;fill-rule:evenodd;stroke:black;stroke-width:1px;stroke-linecap:butt;stroke-linejoin:miter;stroke-opacity:1"
       id="path9041" />
    <path
       d="M 976.44777,1183.0489 L 1021.4646,1183.6565 L 1070.9093,1064.7989 L 1028.9458,1064.7989 L 976.44777,1183.0489 z "
       style="fill:white;fill-opacity:1;fill-rule:evenodd;stroke:black;stroke-width:1px;stroke-linecap:butt;stroke-linejoin:miter;stroke-opacity:1"
       id="path9043" />
    <path
       d="M 1287.1019,1183.8146 L 1333.6378,1184.1184 L 1371.5373,1065.8684 L 1332.9158,1066.4761 L 1287.1019,1183.8146 z "
       style="fill:white;fill-opacity:1;fill-rule:evenodd;stroke:black;stroke-width:1px;stroke-linecap:butt;stroke-linejoin:miter;stroke-opacity:1"
       id="path9045" />
    <path
       d="M 862.84243,1438.4339 L 912.72038,1438.1301 L 969.45684,1303.7775 L 922.63219,1304.0813 L 862.84243,1438.4339 z "
       style="fill:white;fill-opacity:1;fill-rule:evenodd;stroke:black;stroke-width:1px;stroke-linecap:butt;stroke-linejoin:miter;stroke-opacity:1"
       id="path9047" />
    <path
       d="M 746.11162,1698.4482 L 801.45837,1698.4482 L 862.75216,1554.0695 L 808.33196,1554.3734 L 746.11162,1698.4482 z "
       style="fill:white;fill-opacity:1;fill-rule:evenodd;stroke:black;stroke-width:1px;stroke-linecap:butt;stroke-linejoin:miter;stroke-opacity:1"
       id="path9049" />
    <path
       d="M 1128.6446,1698.7153 L 1183.9913,1699.0192 L 1228.271,1554.0328 L 1174.7623,1554.0328 L 1128.6446,1698.7153 z "
       style="fill:white;fill-opacity:1;fill-rule:evenodd;stroke:black;stroke-width:1px;stroke-linecap:butt;stroke-linejoin:miter;stroke-opacity:1"
       id="path9051" />
    <path
       d="M 1211.7486,1439.22 L 1261.3227,1438.9162 L 1303.1719,1302.2873 L 1256.4606,1302.5911 L 1211.7486,1439.22 z "
       style="fill:white;fill-opacity:1;fill-rule:evenodd;stroke:black;stroke-width:1px;stroke-linecap:butt;stroke-linejoin:miter;stroke-opacity:1"
       id="path9053" />
    <path
       d="M 1302.6319,711.69004 L 1333.2493,711.69004 L 1411.1845,494.58473 C 1414.4519,477.56932 1422.713,459.12712 1398.1953,450.0503 L 1413.9679,413.86608 L 1368.5057,461.18391 L 1371.2891,522.41874 L 1385.2061,484.37892 C 1395.2352,486.80334 1394.2901,494.25093 1392.6285,500.15153 L 1302.6319,711.69004 z "
       style="fill:white;fill-opacity:1;fill-rule:evenodd;stroke:black;stroke-width:1px;stroke-linecap:butt;stroke-linejoin:miter;stroke-opacity:1"
       id="path9055" />
    <path
       d="M 990.14513,1553.9716 L 1035.1951,1553.9716 L 1149.8677,1234.5261 C 1154.6753,1209.4899 1166.8306,1182.3544 1130.7556,1168.9987 L 1153.9632,1115.7578 L 1087.0708,1185.3805 L 1091.1662,1275.4807 L 1111.6435,1219.5095 C 1126.4002,1223.0767 1125.0096,1234.035 1122.5647,1242.717 L 990.14513,1553.9716 z "
       style="fill:white;fill-opacity:1;fill-rule:evenodd;stroke:black;stroke-width:1.471385px;stroke-linecap:butt;stroke-linejoin:miter;stroke-opacity:1"
       id="path9057" />
    <path
       d="M 1388.8291,1553.2537 L 1344.5155,1553.2537 L 1435.157,1232.9871 L 1410.986,1232.9871 L 1473.4279,1118.1745 L 1485.5134,1233.9942 L 1460.3352,1233.9942 L 1451.2711,1273.2722 C 1468.6805,1258.1129 1483.946,1260.8201 1499.6132,1260.1795 L 1508.6773,1206.8018 L 1531.8413,1286.3649 L 1485.5134,1352.8353 L 1493.5704,1296.4361 C 1465.7404,1293.6806 1449.2582,1300.6041 1442.2069,1315.5716 L 1388.8291,1553.2537 z "
       style="fill:white;fill-opacity:1;fill-rule:evenodd;stroke:black;stroke-width:1px;stroke-linecap:butt;stroke-linejoin:miter;stroke-opacity:1"
       id="path9059" />
    <path
       d="M 1574.2408,712.05357 L 1543.7349,712.05357 L 1606.1334,491.579 L 1589.4938,491.579 L 1632.4794,412.54091 L 1640.7992,492.2723 L 1623.4663,492.2723 L 1617.2265,519.31164 C 1629.2113,508.87584 1639.7202,510.7395 1650.5056,510.2985 L 1656.7454,473.55279 L 1672.6918,528.32478 L 1640.7992,574.08364 L 1646.3457,535.25789 C 1627.1873,533.36098 1615.8408,538.12718 1610.9866,548.43095 L 1574.2408,712.05357 z "
       style="fill:white;fill-opacity:1;fill-rule:evenodd;stroke:black;stroke-width:0.68840951px;stroke-linecap:butt;stroke-linejoin:miter;stroke-opacity:1"
       id="path9061" />
    <path
       d="M 1508.0779,1782.8383 L 1732.3495,363.29095 C 1741.3233,340.01268 1763.0405,335.84951 1786.8096,334.76424 L 2187.1667,334.72998 L 2187.2009,371.6536 L 1802.0856,372.58999 C 1787.1093,372.58999 1778.0483,377.2697 1775.0001,393.33669 L 1603.0437,1783.1334 L 1508.0779,1782.8383 z "
       style="fill:white;fill-opacity:1;fill-rule:evenodd;stroke:black;stroke-width:3;stroke-linecap:butt;stroke-linejoin:miter;stroke-miterlimit:4;stroke-dasharray:none;stroke-opacity:1"
       id="path9063" />
    <path
       d="M 2187.7304,157.69914 L 2187.7304,133.38403 L 1815.7424,133.44615 C 1805.5948,133.19217 1802.1169,131.35062 1803.018,122.72418 L 1810.0893,17.154471 L 1789.1796,17.00187 L 1780.0729,139.13642 C 1779.7787,144.05533 1783.811,157.62196 1798.2234,157.68398 L 2187.7304,157.69914 z "
       style="fill:white;fill-opacity:1;fill-rule:evenodd;stroke:black;stroke-width:2;stroke-linecap:butt;stroke-linejoin:miter;stroke-miterlimit:4;stroke-dasharray:none;stroke-opacity:1"
       id="path9950" />
    <path
       d="M 2187.8106,147.32735 L 1806.761,147.32735 C 1784.6763,147.18358 1782.9698,141.68993 1780.4321,133.5155"
       style="fill:none;fill-opacity:0.75;fill-rule:evenodd;stroke:black;stroke-width:2;stroke-linecap:butt;stroke-linejoin:miter;stroke-miterlimit:4;stroke-dasharray:none;stroke-opacity:1"
       id="path11728" />
    <path
       d="M 1507.7665,1797.3251 L 1507.7665,1782.6961"
       style="fill:none;fill-opacity:0.75;fill-rule:evenodd;stroke:black;stroke-width:3;stroke-linecap:butt;stroke-linejoin:miter;stroke-miterlimit:4;stroke-dasharray:none;stroke-opacity:1"
       id="path12630" />
  </g>
</svg>

<svg xmlns="http://www.w3.org/2000/svg" version="1.0" viewBox="0 0 2200 1800" role="img" aria-labelledby="title">
  <title id="title">Verkehrszeichen 297 - Pfeilmarkierungen / Richtungspfeile</title>
  <path d="m436.258 339.693.092 12.96h509.349l9.226-13.915zM2187.702 371.218l-.092 10.265-387.727.361c-12.249 0-13.867 5.088-15.08 9.616l-181.635 1392.65 171.458-1393.089 8.366-18.272z" style="fill:#fff;fill-opacity:1;fill-rule:evenodd;stroke:#000;stroke-width:2;stroke-linecap:butt;stroke-linejoin:miter;stroke-miterlimit:4;stroke-dasharray:none;stroke-opacity:1"/>
  <path d="m455.656 315.937 151.525-163.072 505.492 3.547 41.386-17.145 82.724-123.198h552.652l-9.867 126.745c3.946 10.208 11.83 16.656 27.196 15.963l381.939-1.739.019 178.049-410.337-.127c-20.289 1.27-38.665 6.898-46.115 30.153l-224.616 1432.235-1419.255.303L993 366.64c21.77-40.075-15.433-33.375-24.585-51.19z" style="fill:#999;fill-opacity:1;fill-rule:evenodd;stroke:none;stroke-width:1px;stroke-linecap:butt;stroke-linejoin:miter;stroke-opacity:1"/>
  <path d="M11.243 1783.565H87.32L998.667 342.688c4.278-9.608-14.5-27.438-35.426-27.582l-504.95.207-19.751 21.935 515.981 1.935z" style="fill:#fff;fill-opacity:1;fill-rule:evenodd;stroke:#000;stroke-width:3;stroke-linecap:butt;stroke-linejoin:miter;stroke-miterlimit:4;stroke-dasharray:none;stroke-opacity:1"/>
  <path d="m88.553 1783.033.922 10.136L989.78 371.652c5.849-12.073 12.72-21.939 9.857-31.821z" style="fill:none;fill-opacity:.75;fill-rule:evenodd;stroke:#000;stroke-width:3;stroke-linecap:butt;stroke-linejoin:miter;stroke-miterlimit:4;stroke-dasharray:none;stroke-opacity:1"/>
  <path d="m621.433 131.881-13.885 13.362v7.893l489.793 3.413c35.467.449 49.933-10.158 58.877-23.04l80.21-117.754V7.222h-20.604l-72.798 106.014c-8.747 13.914-31.186 21.8-45.268 21.386z" style="fill:#fff;fill-opacity:1;fill-rule:evenodd;stroke:#000;stroke-width:2;stroke-linecap:butt;stroke-linejoin:miter;stroke-miterlimit:4;stroke-dasharray:none;stroke-opacity:1"/>
  <path d="m607.358 145.639 491.408 1.38c25.595.496 41.245-4.65 51.764-16.564l85.582-123.542" style="fill:none;fill-opacity:.75;fill-rule:evenodd;stroke:#000;stroke-width:1px;stroke-linecap:butt;stroke-linejoin:miter;stroke-opacity:1"/>
  <path d="m1332.202 399.285-241.7 550.009h31.402l235.039-550.01zM1538.597 398.694l-172.88 550.01h31.402l166.218-550.01zM976.448 1183.049l45.017.608 49.444-118.858h-41.963zM1287.102 1183.815l46.536.303 37.9-118.25-38.622.608zM862.842 1438.434l49.878-.304 56.737-134.353-46.825.304zM746.112 1698.448h55.346l61.294-144.379-54.42.304zM1128.645 1698.715l55.346.304 44.28-144.986h-53.509zM1211.749 1439.22l49.574-.304 41.849-136.629-46.711.304zM1302.632 711.69h30.617l77.936-217.105c3.267-17.016 11.528-35.458-12.99-44.535l15.773-36.184-45.462 47.318 2.783 61.235 13.917-38.04c10.03 2.424 9.084 9.872 7.423 15.773z" style="fill:#fff;fill-opacity:1;fill-rule:evenodd;stroke:#000;stroke-width:1px;stroke-linecap:butt;stroke-linejoin:miter;stroke-opacity:1"/>
  <path d="M990.145 1553.972h45.05l114.673-319.446c4.807-25.036 16.963-52.172-19.112-65.527l23.207-53.241-66.892 69.622 4.095 90.1 20.477-55.97c14.757 3.567 13.367 14.525 10.922 23.207z" style="fill:#fff;fill-opacity:1;fill-rule:evenodd;stroke:#000;stroke-width:1.471385px;stroke-linecap:butt;stroke-linejoin:miter;stroke-opacity:1"/>
  <path d="M1388.83 1553.254h-44.314l90.641-320.267h-24.171l62.442-114.812 12.085 115.82h-25.178l-9.064 39.277c17.41-15.16 32.675-12.452 48.342-13.092l9.064-53.378 23.164 79.563-46.328 66.47 8.057-56.399c-27.83-2.755-44.312 4.168-51.363 19.136z" style="fill:#fff;fill-opacity:1;fill-rule:evenodd;stroke:#000;stroke-width:1px;stroke-linecap:butt;stroke-linejoin:miter;stroke-opacity:1"/>
  <path d="M1574.24 712.054h-30.505l62.398-220.475h-16.64l42.986-79.038 8.32 79.731h-17.333l-6.24 27.04c11.985-10.436 22.494-8.572 33.28-9.014l6.24-36.745 15.946 54.772-31.893 45.759 5.547-38.826c-19.159-1.897-30.505 2.87-35.36 13.173z" style="fill:#fff;fill-opacity:1;fill-rule:evenodd;stroke:#000;stroke-width:.68840951px;stroke-linecap:butt;stroke-linejoin:miter;stroke-opacity:1"/>
  <path d="M1508.078 1782.838 1732.35 363.291c8.973-23.278 30.69-27.441 54.46-28.527l400.357-.034.034 36.924-385.115.936c-14.977 0-24.038 4.68-27.086 20.747l-171.956 1389.796z" style="fill:#fff;fill-opacity:1;fill-rule:evenodd;stroke:#000;stroke-width:3;stroke-linecap:butt;stroke-linejoin:miter;stroke-miterlimit:4;stroke-dasharray:none;stroke-opacity:1"/>
  <path d="M2187.73 157.7v-24.316l-371.988.062c-10.147-.254-13.625-2.095-12.724-10.722l7.071-105.57-20.91-.152-9.106 122.134c-.294 4.92 3.738 18.486 18.15 18.548z" style="fill:#fff;fill-opacity:1;fill-rule:evenodd;stroke:#000;stroke-width:2;stroke-linecap:butt;stroke-linejoin:miter;stroke-miterlimit:4;stroke-dasharray:none;stroke-opacity:1"/>
  <path d="M2187.81 147.327h-381.049c-22.085-.143-23.791-5.637-26.329-13.811" style="fill:none;fill-opacity:.75;fill-rule:evenodd;stroke:#000;stroke-width:2;stroke-linecap:butt;stroke-linejoin:miter;stroke-miterlimit:4;stroke-dasharray:none;stroke-opacity:1"/>
  <path d="M1507.767 1797.325v-14.629" style="fill:none;fill-opacity:.75;fill-rule:evenodd;stroke:#000;stroke-width:3;stroke-linecap:butt;stroke-linejoin:miter;stroke-miterlimit:4;stroke-dasharray:none;stroke-opacity:1"/>
</svg>
